X:51
T:Bourre de Corrze
R:Bourre  3 temps
C:trad
A:Corrze
O:France
M:3/8
L:1/8
Q:1/4=110
K:F
cd>e|f2d|ed2|d/2e/2 f g/2a/2|gf/2g/2f/2e/2|d3:|
|:d/2e/2fe|d2c|BG2|dgf|ed2|c3:||
